X: 4427
M: 3/4
L: 1/8
K: G
[|!p!\
c6- | c2(B3c) | B6 | A6 |\
d4d2 | (g4e2) | d6 | (B4A2) |\
c6- | c2(B3c) | B6 | A6 |\
d4d2 | (g4e2) | (d4B2) | (G4A2) |\
(B4c2) | (B4A2) |[1 G6- |G!ff!bb2b2 |\
|["Last."G6- | G2"_Fine."z2z2 H |: !ff!\
(b3a)a2 | zc'f2e2 | (e3d)d2- | d3gag |
(g3f)f2- | f3aba | (a3g)g2- | gbb2b2 |\
(b3a)a2 | zc'f2f2 | (a3g)g2 | zfagfe |\
dbagfe | dedcBA | GFGBdg |[1 zbb2b2 :|[2 "_D.C."z6 |]


